frontend/src/images/advantages-1.svg

<svg width="98" height="101" viewBox="0 0 98 101" fill="none" xmlns="http://www.w3.org/2000/svg">
<path d="M56.2706 42.8778H42.0225V57.1722H56.2706V42.8778Z" fill="#2E3840"/>
<path d="M56.2584 0H42.0103V14.2943H56.2584V0Z" fill="#2E3840"/>
<path d="M56.2706 14.2888H42.0225V28.5833H56.2706V14.2888Z" fill="#2E3840"/>
<path d="M56.2706 28.5833H42.0225V42.8778H56.2706V28.5833Z" fill="#2E3840"/>
<path d="M56.2706 57.1215H42.0225V71.4159H56.2706V57.1215Z" fill="#2E3840"/>
<path d="M56.2706 71.4159H42.0225V85.7107H56.2706V71.4159Z" fill="#2E3840"/>
<path d="M56.2481 85.7047H42V99.9993H56.2481V85.7047Z" fill="#2E3840"/>
<path d="M70 100.248L70 86L55.7056 86L55.7056 100.248L70 100.248Z" fill="#2E3840"/>
<path d="M56 100.248L56 86L41.7052 86L41.7052 100.248L56 100.248Z" fill="#2E3840"/>
<path d="M41.9907 100.248L41.9907 86L27.6961 86L27.6961 100.248L41.9907 100.248Z" fill="#2E3840"/>
<path d="M41.9907 14.2481L41.9907 0L27.6961 -6.24837e-07L27.6961 14.2481L41.9907 14.2481Z" fill="#2E3840"/>
<path d="M28.2944 100.248L28.2944 86L13.9998 86L13.9998 100.248L28.2944 100.248Z" fill="#2E3840"/>
<path d="M28.2944 14.2481L28.2944 0L13.9998 -6.24837e-07L13.9998 14.2481L28.2944 14.2481Z" fill="#2E3840"/>
<path d="M14.2944 100.248L14.2944 86L-0.000174522 86L-0.000175145 100.248L14.2944 100.248Z" fill="#2E3840"/>
<path d="M14.2944 14.2481L14.2944 0L-0.000174522 -6.24837e-07L-0.000175145 14.2481L14.2944 14.2481Z" fill="#2E3840"/>
<path d="M98 100.248L98 86L83.7054 86L83.7054 100.248L98 100.248Z" fill="#2E3840"/>
<path d="M84 100.248L84 86L69.7054 86L69.7054 100.248L84 100.248Z" fill="#2E3840"/>
</svg>

<svg width="98" height="101" fill="none" xmlns="http://www.w3.org/2000/svg"><path d="M56.27 42.878H42.023v14.294h14.249V42.878zM56.258 0H42.01v14.294h14.248V0z" fill="#2E3840"/><path d="M56.27 14.289H42.023v14.294h14.249V14.29zM56.27 28.583H42.023v14.295h14.249V28.583zM56.27 57.121H42.023v14.295h14.249V57.122zM56.27 71.416H42.023V85.71h14.249V71.416z" fill="#2E3840"/><path d="M56.248 85.705H42v14.294h14.248V85.705z" fill="#2E3840"/><path d="M70 100.248V86H55.706v14.248H70z" fill="#2E3840"/><path d="M56 100.248V86H41.705v14.248H56z" fill="#2E3840"/><path d="M41.99 100.248V86H27.697v14.248h14.295zM41.99 14.248V0H27.697v14.248h14.295z" fill="#2E3840"/><path d="M28.294 100.248V86H14v14.248h14.294zM28.294 14.248V0H14v14.248h14.294z" fill="#2E3840"/><path d="M14.294 100.248V86H0v14.248h14.294zM14.294 14.248V0H0v14.248h14.294zM98 100.248V86H83.705v14.248H98z" fill="#2E3840"/><path d="M84 100.248V86H69.705v14.248H84z" fill="#2E3840"/></svg>
